svg/fluentui-system-icons/ic_fluent_phone_pagination_20_regular.svg

<svg width="20" height="20" viewBox="0 0 20 20" fill="none" xmlns="http://www.w3.org/2000/svg">
<path d="M8 15C8.27614 15 8.5 14.7761 8.5 14.5C8.5 14.2239 8.27614 14 8 14C7.72386 14 7.5 14.2239 7.5 14.5C7.5 14.7761 7.72386 15 8 15ZM10.5 14.5C10.5 14.7761 10.2761 15 10 15C9.72386 15 9.5 14.7761 9.5 14.5C9.5 14.2239 9.72386 14 10 14C10.2761 14 10.5 14.2239 10.5 14.5ZM12 15C12.2761 15 12.5 14.7761 12.5 14.5C12.5 14.2239 12.2761 14 12 14C11.7239 14 11.5 14.2239 11.5 14.5C11.5 14.7761 11.7239 15 12 15ZM7 2C5.89543 2 5 2.89543 5 4V16C5 17.1046 5.89543 18 7 18H13C14.1046 18 15 17.1046 15 16V4C15 2.89543 14.1046 2 13 2H7ZM6 4C6 3.44772 6.44772 3 7 3H13C13.5523 3 14 3.44772 14 4V16C14 16.5523 13.5523 17 13 17H7C6.44772 17 6 16.5523 6 16V4Z" fill="#212121"/>
</svg>

<svg xmlns="http://www.w3.org/2000/svg" width="20" height="20"><path d="M8 15a.5.5 0 1 0 0-1 .5.5 0 0 0 0 1Zm2.5-.5a.5.5 0 1 1-1 0 .5.5 0 0 1 1 0Zm1.5.5a.5.5 0 1 0 0-1 .5.5 0 0 0 0 1ZM7 2a2 2 0 0 0-2 2v12a2 2 0 0 0 2 2h6a2 2 0 0 0 2-2V4a2 2 0 0 0-2-2H7ZM6 4a1 1 0 0 1 1-1h6a1 1 0 0 1 1 1v12a1 1 0 0 1-1 1H7a1 1 0 0 1-1-1V4Z"/></svg>
